X:150
T:Jamboree
M:C|
L:1/8
K:Fm
E3F  G2E2|A2A2 E2ed|c2c2 F2A2|G2F2 E2CC|
F2G2 A2B2|c2A2 B2e2|cdcB A2G2|F6     C2|
E3F  G2B2|c2A2 B2ed|c2c2 F2A2|G3A  G3F |E6 C2|
E3F  G2B2|c2A2 B2e2|cdcB A2G2|F6 ||
